X: 139041
T: The MUG OF BROWN ALE
Q: "Irish Jig."
R: Jig.
%R: jig
B: James Kerr "Merry Melodies" v.1 p.39 s.0 #41
Z: 2016 John Chambers <jc:trillian.mit.edu>
M: 6/8
L: 1/8
K: Am
vA/G/ |\
EAA ABc | edB cBA | BGG dGG | Bdc BAG |\
EAA ABc | edc ug2ue | edc Bcd | ecA A2 |]\
u^f |\
ge^f ug2ua | ge^f ug2uc | BGG dGG | Bdc BAG |
ge^f g2a | ge^f g2f | edc Bcd | ecA A2u^f |\
ge^f g2a | ge^f g2c | BGG dGG | Bdc BAG |\
EAA ABc | edc g2e | edc Bcd | e^cA A2 |]

%%sep 1 1 500
%%sep 1 1 500

